assets/icons/qvision/signal_wifi_off.svg

<svg width="24" height="24" viewBox="0 0 24 24" fill="none" xmlns="http://www.w3.org/2000/svg">
<g clip-path="url(#clip0_147_2488)">
<path d="M23.64 7C23.19 6.66 18.71 3 12 3C10.5 3 9.10999 3.19 7.84999 3.48L18.18 13.8L23.64 7ZM17.04 15.22L3.26999 1.44L1.99999 2.72L4.04999 4.78C1.90999 5.76 0.589985 6.82 0.359985 7L11.99 21.49L12 21.5L12.01 21.49L15.91 16.63L19.23 19.95L20.5 18.68L17.04 15.22Z" fill="#323232"/>
</g>
<defs>
<clipPath id="clip0_147_2488">
<rect width="24" height="24" fill="white"/>
</clipPath>
</defs>
</svg>

<svg xmlns="http://www.w3.org/2000/svg" height="24" viewBox="0 0 24 24" width="24"><path d="M0 0h24v24H0z" fill="none"/><path d="M23.64 7c-.45-.34-4.93-4-11.64-4-1.5 0-2.89.19-4.15.48L18.18 13.8 23.64 7zm-6.6 8.22L3.27 1.44 2 2.72l2.05 2.06C1.91 5.76.59 6.82.36 7l11.63 14.49.01.01.01-.01 3.9-4.86 3.32 3.32 1.27-1.27-3.46-3.46z"/></svg>
